X: 032
T: Mrs Ord of Fenham's Reel
C: Abraham Mackintosh
R: reel
M: C|
L: 1/8
Z: 2010 John Chambers <jc:trillian.mit.edu>
B: Abraham Mackintosh "A Collection of Strathspeys, Reels, Jigs &c.", Newcastle, after 1797, p.3
F: http://imslp.info/files/imglnks/usimg/a/a8/IMSLP80796-PMLP164326-Abraham_Mackintosh_coll.pdf
K: F
V: 1
f | cA A/A/A f2ef | gG G/G/G A>GFd | cA A/A/A fede | f/e/f/g/ aA d>ed :|
c | A/B/c Fc Acfc | B/c/d Gd Bdgd | A/B/c Fc Bdgd | ecbg aff ||
c | A/B/c Fc Acfc | B/c/d gd BGdB | Afcf dfBf | cegb aff |]
V: 2 clef=bass middle=d
z | f2f2 a2gf | e2c2 ^c2dB | A2f2 d2B2 |  A2A2 d2D :|
z | f2f2 f2f2 | g2g2  g2g2 | f2a2 g2b2 | c'2c2 f2F2 |
    f2f2 f2f2 | g2g2  g2g2 | f2A2 B2d2 |  c2c2 f2F |]

%%sep 2 1 500

